launcher/android/assets/skins/day/svg/check_on.svg

<svg enable-background="new 0 0 51.00 51.00" height="51" viewBox="0 0 51 51" width="51" xmlns="http://www.w3.org/2000/svg" xmlns:xlink="http://www.w3.org/1999/xlink"><linearGradient id="a" gradientTransform="matrix(-.594020763645 -.804449707787 .804449707787 -.594020763645 .477561809652 1.693659695097)" gradientUnits="objectBoundingBox" x1=".666148" x2="1.22325" y1=".726325" y2=".726325"><stop offset="0" stop-color="#04a100"/><stop offset="1" stop-color="#fff"/></linearGradient><path d="m5.5.5h40c2.7614 0 5 2.23857 5 4.99998v40.00002c0 2.7614-2.2386 5-5 5h-40c-2.76143 0-5-2.2386-5-5v-40.00002c0-2.76141 2.23857-4.99998 5-4.99998z" fill="#fff" stroke="#000" stroke-linejoin="round"/><path d="m23.1642 24.077c4.3603-4.1094 12.7891-11.7517 17.3889-15.52085 4.5998-3.76909 5.3707-3.66493 5.915-3.10502.5442.55989.8619 1.57551-3.5304 8.47657-4.3924 6.901-13.4948 19.6875-18.421 26.289-4.9262 6.6016-5.6762 7.0183-6.3985 6.9766-.7222-.0417-1.4166-.5417-3.73-4.2266s-6.24567-10.5547-8.32379-14.7343c-2.07813-4.1797-2.30208-5.6693-1.7526-6.2865.54947-.6172 1.87239-.362 4.31945 1.0156 2.44704 1.3776 6.01824 3.8776 7.94964 4.8394 1.9314.9619 2.2231.3855 6.5833-3.7239z" fill="url(#a)" stroke="#000" stroke-linejoin="round"/></svg>

﻿<?xml version="1.0" encoding="utf-8"?>
<!DOCTYPE svg PUBLIC "-//W3C//DTD SVG 1.1//EN" "http://www.w3.org/Graphics/SVG/1.1/DTD/svg11.dtd">
<svg xmlns="http://www.w3.org/2000/svg" xmlns:xlink="http://www.w3.org/1999/xlink" version="1.1" baseProfile="full" width="51" height="51" viewBox="0 0 51.00 51.00" enable-background="new 0 0 51.00 51.00" xml:space="preserve">
	<path fill="#FFFFFF" fill-opacity="1" stroke-linejoin="round" stroke="#000000" stroke-opacity="1" d="M 5.5,0.5L 45.5,0.5C 48.2614,0.5 50.5,2.73857 50.5,5.49998L 50.5,45.5C 50.5,48.2614 48.2614,50.5 45.5,50.5L 5.5,50.5C 2.73857,50.5 0.5,48.2614 0.5,45.5L 0.5,5.49998C 0.5,2.73857 2.73857,0.5 5.5,0.5 Z "/>
	<linearGradient id="SVGID_Fill1_" gradientUnits="objectBoundingBox" x1="0.666148" y1="0.726325" x2="1.22325" y2="0.726325" gradientTransform="rotate(233.557144 0.666148 0.726325)">
		<stop offset="0" stop-color="#04A100" stop-opacity="1"/>
		<stop offset="1" stop-color="#FFFFFF" stop-opacity="1"/>
	</linearGradient>
	<path fill="url(#SVGID_Fill1_)" stroke-linejoin="round" stroke="#000000" stroke-opacity="1" d="M 23.1642,24.077C 27.5245,19.9676 35.9533,12.3253 40.5531,8.55615C 45.1529,4.78706 45.9238,4.89122 46.4681,5.45113C 47.0123,6.01102 47.33,7.02664 42.9377,13.9277C 38.5453,20.8287 29.4429,33.6152 24.5167,40.2167C 19.5905,46.8183 18.8405,47.235 18.1182,47.1933C 17.396,47.1516 16.7016,46.6516 14.3882,42.9667C 12.0748,39.2818 8.14253,32.412 6.06441,28.2324C 3.98628,24.0527 3.76233,22.5631 4.31181,21.9459C 4.86128,21.3287 6.1842,21.5839 8.63126,22.9615C 11.0783,24.3391 14.6495,26.8391 16.5809,27.8009C 18.5123,28.7628 18.804,28.1864 23.1642,24.077 Z "/>
</svg>
